!!!COM: Schubert, Franz Peter
!!!CDT: 1797-1828
!!!OTL: Meeres Stille
!!!OPS: Opus 3
!!!ONM: No. 2
!!!SCT: DV 216
!!!YOR: Franz Schubert: Selected songs
!!!PPE: Max Friedlaender
!!!PSR: C.F. Peters 
!!!PSP: Frankfurt, London, New York
!!!PSD: n.d.
!!!PPG: p.92
!!!ODT: 1815///
!!!ONB: 
**kern
*M2/2
*MM[Sehr langsam, aengstlich]
*C:
*k[]
=-1
2.e
4e
=2
2e
2e
=3
2.g
4g
=4
2e
2c
=5
2.e
4e
=6
2a
2f#
=7
(2d#
16Qe
16Qd#
4c#)
4d
=8
2.e
4r
=9
2.fn
4g#
=10
(4.a
8e)
2e
=11
(2b
16Qcc
16Qb
4a)
4b
=12
(4Qdd
2cc)
2cc
=13
2.cc
4a
=14
2.cc
4a
=15
2g
2a
=16
1f
=17
2.d#
4d#
=18
2.a
4a
=19
2.cc
4cc
=20
(4Qb
2a)
2a
=21
2.a
4a
=22
2a
2f#
=23
2.g
4e
=24
1B;
=25
2.e
4e
=26
2a
2a
=27
2.b
4f#
=28
2g#
2e
=29
2.g
4g
=30
2g
2g
=31
2.g
4g
=32
2c
2r;
==
*-
!!!EMD: Paul von Hippel (1998/10/21/)
!!!EEV: Version 2.0
